X: 26780
T: Miller Of Droghan, The
R: reel
M: 4/4
K: Gmajor
G2 BG DGBG|Eeef gedB|G2 BG dGBA|GEGA BcBA|
G2 BG DGBG|Eeef gfeg|fdef dBBA|1 GEGA BcBA:|2 GEGA BA (3Bcd||
e~E3 DEB,E|DEGA BcBA|G~E3 DEB,E|DEGA BA (3B^cd|
e~E3 DEB,E|DEGA BcBA|G~E3 DEB,E|DEGA BcBA||

